X:045
T:British Grenadiers [1],The. WES.045
M:2/4
L:1/8
R:Country Dance
Q:1/4=120
B:T. Westrop's 120 Country Dances, Jigs, Reels, Hornpipes, Strathspeys, Spanish Waltz etc. for the Violin, n.d.(c.1923)
Z:R.Greig 2010
K:D
A|dAde|f(g/f/) e(f/g/)|ad f/e/d/c/|1 d2z:|2dD/D/ D|]
|:a|a>bag|f>gad|bb a/g/f/e/|(d2c)A|
dc/d/ ed/e/|fe/f/ gf/g/|ad f/e/d/c/|dD/D/ D:|]

